X:68 
T:Philip Mackeugh  
F:file ID: msist/68phil_m
B:MSIST.31b
N:Mulholland's unique contribution to variant spellings 
for the title - "Philip McHugh", "Philip McKeogh", "Pilib 
a Ceoil", etc etc
Q:160
L:1/8 
M:9/8
R:slip jig
K:D
A|d2g fdf g2e|faf ged cBA|d2g fdf g2e|faf gec d2 :|
f|efe ecA cBA|efe ecA d2f|efe ecA cBA|def gec d2 :|

